X:1
T:Polka
C:traditionell
R:polka
A:Steiermark
%%textfont Helvetica-Narrow 10pt
%%begintext align
B:"2.Spielheft f.Okarina", Volker Derschmidt, Oberoesterreichisches Volksliedwerk, Linz 1993 
%%endtext
Z:abc transcription Simon Wascher
M:2/4
L:1/8
K:G
dB d/c/d | dB e/d/e | cf f/e/f | gB d2 |\
dB d/c/d | dB e/d/e | cf f/e/f | gb gz :|
|:\
GD GD | BG d2 | cF F/E/F | BG G2 | GD GD |\
BG d2 | cF F/E/F | GB G2 :|
|:\
d/e/d/c/ dc | BD G2 | BD GB | cD F2 |\
e/d/c/d/ ed | cD F2 | cD Fc | BD G2 |
d/e/d/c/ dc | BD G2 | BD GB | cD F2 |\
e/d/c/d/ ed | cD F2 | cD FA | GG G2 :|
%%wordsfont Times-Italic 11pt
W:aus Simon Waschers TradArchiv
